src/main/resources/icons/SpringBootApiIcons/icons/gutter/springBoot.svg

<svg xmlns="http://www.w3.org/2000/svg" width="12" height="12" viewBox="0 0 12 12">
  <g fill="none" fill-rule="evenodd">
    <path fill="#9AA7B0" d="M7.33333333,7 L10.6666667,7 L12,9.5 L10.6666667,12 L7.33333333,12 L6,9.5 L7.33333333,7 Z M8.66666667,7.96875566 C7.90591989,8.11352764 7.33333333,8.74407565 7.33333333,9.5 C7.33333333,10.3629449 8.07952542,11.0625 9,11.0625 C9.92047458,11.0625 10.6666667,10.3629449 10.6666667,9.5 C10.6666667,8.74407565 10.0940801,8.11352764 9.33333333,7.96875566 L9.33333333,7.625 L8.66666667,7.625 L8.66666667,7.96875566 Z M8.66666667,8.61584553 L8.66666667,9.5 L9.33333333,9.5 L9.33333333,8.61584553 C9.72173079,8.74454441 10,9.09180662 10,9.5 C10,10.017767 9.55228475,10.4375 9,10.4375 C8.44771525,10.4375 8,10.017767 8,9.5 C8,9.09180662 8.27826921,8.74454441 8.66666667,8.61584553 Z"/>
    <path fill="#62B543" fill-opacity=".7" d="M5.78506676,11.0456002 C4.77260808,11.0336788 3.78479382,10.9664054 2.95471935,11.0039443 C2.95471935,11.0039443 2.52242657,11.0284862 2.08662635,11.100359 C2.08662635,11.100359 2.25147633,11.0302392 2.46192312,10.9574899 C3.74982747,10.5123433 4.52795526,10.3343471 5.27745895,10.0462473 L5.78506676,11.0456002 Z M9.72952786,6 C10.0182524,5.43752352 10.2282377,4.84957015 10.3317561,4.25579116 C10.1230012,4.86706624 9.79490137,5.45441348 9.38535277,6 L6.77777778,6 L5.20568332,9.09506096 C3.78269979,9.60915933 1.28780541,10.1055449 1.28780541,10.106411 L1.18433574,10.0511917 C-0.553603985,9.20624822 -0.601831374,5.44519807 2.55311673,4.23300223 C3.93680436,3.70096834 5.25998854,3.99371845 6.7550376,3.63698403 C8.35004888,3.25833717 10.1967194,2.05928879 10.947313,0.5 C11.5789391,2.37109655 12.3051548,5.03355965 11.8656304,7.26670991 L11.2222222,6 L9.72952786,6 Z"/>
  </g>
</svg>

<svg xmlns="http://www.w3.org/2000/svg" width="12" height="12" viewBox="0 0 12 12"><rect id="frame" width="12" height="12" fill="none"/><g fill="none" fill-rule="evenodd"><path fill="#9AA7B0" d="M7.333 7h3.334L12 9.5 10.667 12H7.333L6 9.5 7.333 7zm1.334.969c-.761.145-1.334.775-1.334 1.531 0 .863.747 1.563 1.667 1.563s1.667-.7 1.667-1.563c0-.756-.573-1.386-1.334-1.531v-.344h-.666v.344zm0 .647V9.5h.666v-.884c.389.129.667.476.667.884 0 .518-.448.938-1 .938s-1-.42-1-.938c0-.408.278-.755.667-.884z"/><path fill="#62B543" fill-opacity=".7" d="M5.785 11.046c-1.012-.012-2-.08-2.83-.042 0 0-.433.024-.868.096 0 0 .164-.07.375-.143 1.288-.445 2.066-.623 2.815-.91l.508.999zM9.73 6a6.16 6.16 0 0 0 .602-1.744A6.354 6.354 0 0 1 9.385 6H6.778L5.206 9.095c-1.423.514-3.918 1.01-3.918 1.011l-.104-.055c-1.738-.845-1.786-4.606 1.37-5.818 1.383-.532 2.706-.24 4.201-.596C8.35 3.258 10.197 2.059 10.947.5c.632 1.871 1.358 4.534.919 6.767L11.222 6H9.73z"/></g></svg>
